X: 10412
T: PETRONELLA - Contre Dance
R: reel
B: K\"ohler's Violin Repository, v.1, 1885 p.41 #2
F: http://www.archive.org/details/klersviolinrepos01edin
Z: 2011 John Chambers <jc:trillian.mit.edu>
N: The 2nd part is missing its initial repeat symbol.
M: 2/4
L: 1/16
K: F
u(fc) |\
A2cA G2cA | F2F2F2 (A,C) | F2FD G2GF | E2(GE) C2(fc) |\
A2cA G2cA | F2F2F2 (A,C) | F2FD G2GE | [F6A,6] :|
|: u(fc) |\
A2af c2af | b2(bg) ecGE | C2ge c2ge | a2(af) cAFC |\
A,2cA F2af | b2(bg) ecGE | C2ge c2be | [f6A6] :|

%%sep 2 1 500

